src/assets/outline/Arrow2.svg

<svg width="24" height="24" viewBox="0 0 24 24"  xmlns="http://www.w3.org/2000/svg">
<path d="M17.2798 11.2C17.0898 11.2 16.8997 11.13 16.7497 10.98C16.4597 10.69 16.4597 10.21 16.7497 9.91995L19.9397 6.72995L16.7497 3.53995C16.4597 3.24995 16.4597 2.76995 16.7497 2.47995C17.0397 2.18995 17.5197 2.18995 17.8097 2.47995L21.5298 6.19998C21.6698 6.33998 21.7497 6.52995 21.7497 6.72995C21.7497 6.92995 21.6698 7.11998 21.5298 7.25998L17.8097 10.98C17.6597 11.12 17.4698 11.2 17.2798 11.2Z" />
<path d="M21 7.47998H3C2.59 7.47998 2.25 7.13998 2.25 6.72998C2.25 6.31998 2.59 5.97998 3 5.97998H21C21.41 5.97998 21.75 6.31998 21.75 6.72998C21.75 7.13998 21.41 7.47998 21 7.47998Z" />
<path d="M6.71997 21.75C6.52997 21.75 6.34 21.68 6.19 21.53L2.46997 17.81C2.32997 17.67 2.25 17.48 2.25 17.28C2.25 17.08 2.32997 16.89 2.46997 16.75L6.19 13.03C6.48 12.74 6.96 12.74 7.25 13.03C7.54 13.32 7.54 13.8 7.25 14.09L4.06 17.28L7.25 20.4699C7.54 20.7599 7.54 21.24 7.25 21.53C7.11 21.68 6.91997 21.75 6.71997 21.75Z" />
<path d="M21 18.02H3C2.59 18.02 2.25 17.68 2.25 17.27C2.25 16.86 2.59 16.52 3 16.52H21C21.41 16.52 21.75 16.86 21.75 17.27C21.75 17.68 21.41 18.02 21 18.02Z" />
</svg>

<?xml version="1.0" encoding="UTF-8"?>
<svg width="24" height="24" viewBox="0 0 24 24" xmlns="http://www.w3.org/2000/svg">
 <path d="m17.28 11.2c-0.19 0-0.3801-0.07-0.5301-0.22-0.29-0.29-0.29-0.77 0-1.06l3.19-3.19-3.19-3.19c-0.29-0.29-0.29-0.77 0-1.06s0.77-0.29 1.06 0l3.7201 3.72c0.14 0.14 0.2199 0.32997 0.2199 0.52997s-0.0799 0.39003-0.2199 0.53003l-3.7201 3.72c-0.15 0.14-0.3399 0.22-0.5299 0.22z"/>
 <path d="m21 7.48h-18c-0.41 0-0.75-0.34-0.75-0.75s0.34-0.75 0.75-0.75h18c0.41 0 0.75 0.34 0.75 0.75s-0.34 0.75-0.75 0.75z"/>
 <path d="m6.72 21.75c-0.19 0-0.37997-0.07-0.52997-0.22l-3.72-3.72c-0.14-0.14-0.21997-0.33-0.21997-0.53s0.07997-0.39 0.21997-0.53l3.72-3.72c0.29-0.29 0.77-0.29 1.06 0s0.29 0.77 0 1.06l-3.19 3.19 3.19 3.1899c0.29 0.29 0.29 0.7701 0 1.0601-0.14 0.15-0.33003 0.22-0.53003 0.22z"/>
 <path d="m21 18.02h-18c-0.41 0-0.75-0.34-0.75-0.75s0.34-0.75 0.75-0.75h18c0.41 0 0.75 0.34 0.75 0.75s-0.34 0.75-0.75 0.75z"/>
</svg>
